X:1
T:Dime Robadora a3
T:Anonymous
T:Source : Cancionero de Uppsala : Villancicos---Venetia---G.Scotto---1556. Editor : André Vierendeels (12/04/17).
T:Notes : Original clefs :  C1, C1, C4 Original note values have been halved Editorial accidentals above the staff Dotted brackets indicate black notes m 17 in T : "A" notated as "B" in original print
T:Dime Robadora a3
T:©
T:©
C:Anonymous
Z:©
%%score [ 1 2 3 ]
L:1/8
Q:1/4=120
M:3/2
K:C
V:1 treble nm="Soprano 1" snm="S 1"
V:2 treble nm="Soprano 2" snm="S 2"
V:3 treble-8 nm="Tenor" snm="T"
V:1
 G8 G4 | E6 F2 G4 | C4 c4 B4 | G4 A4 G4 | E4 z4 z4 | G4 A4 G4- | G2 E2 F4 E4 | z2 G2 A4 G4- | %8
w: Di- me|Ro- ba- do-|ra, que te-|me- * re|çi,|que ga- nas|_ a- go- ra,|que ga- nas|
w: Yo soy|quien ta- do-|ro y tu|con- * tra|mi,|que ga- nas|_ a- go- ra,|que ga- nas|
 G2 E2 A4 G4- | G2 F2 E2 D2 C4 | z2 D2 E6 D2 | C4 B,4 C4- | C4 D8 | C12 || G4 A8 | G6 E2 F4 | %16
w: _ a- go- ra|_ que mu- e- ra|por- * *|||ti.|Yo siem-|pre- ser- vien-|
w: _ a- go- ra,|_ que mu- e- ra|por- * *|||ti.|Yo siem-|pre mu- rian-|
 E8 z4 | z4 G4 F4 | E4 z2 A2 G4 | E4 z2 A2 G4 | F4 G4 C4- | C4 D8 | C12 |] %23
w: do|tu siem-|pre, tu siem-|pre, tu siem-|pre ol- vi|_ dan-|do.|
w: do|tu siem-|pre, tu siem-|pre, tu siem-|pre ma- tan-||do.|
V:2
 z12 | G8 G4 | E6 F2 G4 | C4 c4 B4 | G4 A4 G4 | E4 z4 z4 | G4 A4 G4- | G2 E2 F4 E4 | %8
w: |Di- me|Ro- ba- do-|ra, que te|me- re- *|çi,|que ga- nas|_ a- go- ra,|
w: |Yo soy|quien ta- do-|ro y tu|con- * tra|mi,|sue ga- nas|_ a- go- ra,|
 z2 B2 c4 B2 G2 | A4 G6 E2 | F4 G6 F2 | E4 D6 C2 | C8 B,4 | C12 || z12 | G4 A8 | G6 E2 F4 | E8 z4 | %18
w: que ga- nas a-|go- ra que|mu- e- ra|por- * *||ti.||Yo siem-|pre ser- vien-|do|
w: que ga- nas a-|go- ra que|mu- e- ra|por- * *||ti.||Yo siem-|pre mu- rien-|do|
 G4 F4 E4 | z2 G2 F4 E4 | D4 E6 D2 | C8 B,4 | C12 |] %23
w: tu siem- pre,|tu siem- pre|ol- vi- *|dan- *|do.|
w: tu siem- pre,|tu siem- pre|ma- tan- *||do.|
V:3
 G4 G4 E4- | E2 F2 G4 C2 c2- | c2 B2 A4 G4 | E4 F4 G4 | z4 d4 e4- | e4 d6 B2 | c4 A2 d2 e4- | %7
w: Di- me Ro-|* ba- do- ra, que|_ te- me- re-|* * çi,|que ga-|* nas a-|go- ra, que mue-|
w: Yo soy quien|_ ta- do- ro y|_ tu con- *|* tra mi,|que ga-|* nas a-|go- ra, que mue-|
 e4 d6 d2 | e4 A2 A2 e4 | d2 A2 c2 B2 z2 A2 | d4 c4 A4 | A4 B4 A4- | A4 G8 | c12 || z4 z4 d4 | %15
w: * ra por-|* ti, que ga-|nas a- go- ra, que|mue- ra, que|mu- e- ra|_ por-|ti.|Yo|
w: * ra por-|* ti, que ga-|nas a- go- ra que|mue- ra, que|mu- e- ra|_ por-|ti.|Yo|
 e4 d6 B2 | c8 A4 | z4 e4 d4 | c4 F4 G4 | A2 G2 d4 G2 c2- | c2 B2 G4 A4- | A4 G8 | c12 |] %23
w: siem- pre ser-|vien- do|tu siem-|pre, tu siem-|* pre ol- vi- dan-|||do.|
w: siem- pre mu-|rien- do,|tu sem-|pre, tu siem-|pre ma- tan- * *|||do.|

